X:1
T:O beatum Pontificem - Marenzio
T:#
%%score [ 1 2 3 4 ]
L:1/8
Q:1/4=200
M:none
K:C
V:1 treble nm="Soprano" snm="S"
V:2 treble nm="Alto" snm="A"
V:3 treble-8 nm="Tenor" snm="T"
V:4 bass nm="Bass" snm="B"
V:1
"^O beatum Pontificem""^Luca Marenzio\n(1556-1599)" c16 | G8 A8 | G4 c4 B6 B2 | (c6 BA G8) | z16 | %5
w: O|be- a-|tum Pon- ti- fi-|cem, * * *||
 z16 |[M:4/2] g16 | d8 e8 | d4 g4 ^f6 f2 | (g6 ^fe d8) | z16 | z8 z4 A4 | B8 c8 | c8 d6 d2 | %14
w: |O|be- a-|tum Pon- ti- fi-|cem, * * *||qui|to- tis|vi- sce- ri-|
 d4 e6 d2 c4 | B4 c8 d4 | d16 | d4 e8 e4 | e4 e4 f8 | e4 e4 g6 g2 | e8 A6 B2 | (c4 B2 A2 B8) | %22
w: bus di- li- ge-|bat Chri- stum|Re-|gem, et non|for- mi- de-|bat im- pe- ri-|i prin- ci-|pa\- * * *|
 (G8 A8) | z4 B4 c6 c2 | A8 G4 G4 | G8 G8- | G8 g8- | g4 g4 g8 | e8 g8- | g4 g4 e8 | d4 ^c4 d8- | %31
w: tum, *|im- pe- ri-|i prin- ci-|pa- tum:|* O|* Mar- ti-|ne, O|* Mar- ti-|ne dul- ce\-|
 d8 (=c2 d2 e2 f2 | g8) z8 | z4 g4 f4 d4 | e8 d4 B4 | c6 c2 B8 | z8 z4 g4 | f4 d4 e8 | d8 c8 | %39
w: * do, * * *||me- di- ca-|men- tum et|me- di- ce,|me-|di- ca- men-|tum et|
 _B6 B2 A6 B2 | c8 z8 | e12 B4 | B6 B2 B4 c4- | c4 A4 A8- | A8 z8 | e12 B4 | B6 B2 B4 c4- | %47
w: me- di- ce: *||O san-|ctis- si- ma a\-|* ni- ma,||O san-|ctis- si- ma a\-|
 c4 A4 A8 | z4 d6 c2 d4 | e6 e2 e8 | c4 e8 e4 | f8 e4 (g4- | g2 f2 e2 d2 c4) e4- | e4 d4 e8- | %54
w: * ni- ma,|quam et- si|gla- di- us|per- se- cu-|to- ris non|* * * * * ab\-|* stu- lit,|
 e8 (c2 d2 e2 f2 | g8) d8 | (c2 d2 e2 f2 g6 f2 | e2 d2 c4) B4 g4- | g2 g2 d4 e6 e2 | %59
w: * pal\- * * *|* mam,|pal\- * * * * *|* * * mam ta\-|* men mar- ty- ri-|
 d4 (g2 f2 e2 d2 c4) | B4 d6 d2 A4 | B6 B2 A8 | z4 (c2 d2 e2 f2 g4) | e4 c6 c2 B4 | c6 c2 G8 | %65
w: i, pal\- * * * *|mam ta- men mar-|ty- ri- i,|pal\- * * * *|mam ta- men mar-|ty- ri- i|
 g8 e8 | g8 d4[Q:1/4=198] d4- |[Q:1/4=194] d4[Q:1/4=191] c4[Q:1/4=186] (B6[Q:1/4=183] A2 | %68
w: non a-|mi- sit, non|* a- mi\- *|
[Q:1/4=181] B2[Q:1/4=180] G2[Q:1/4=176] c8[Q:1/4=171] B4) |[Q:1/4=170] c16 |] %70
w: |sit.|
V:2
 C16 | E8 F8 | E4 C4 D6 D2 | E16 | z16 | z16 |[M:4/2] G16 | B8 c8 | B4 G4 A6 A2 | B16 | z16 | z16 | %12
w: O|be- a-|tum Pon- ti- fi-|cem,|||O|be- a-|tum Pon- ti- fi-|cem,|||
 z4 G4 G8 | A4 A4 B6 B2 | B4 c6 B2 A4 | ^G4 A8 B4 | A16 | B4 c8 c4 | c4 G4 A8 | G4 c4 B6 B2 | %20
w: qui to-|tis vi- sce- ri-|bus di- li- ge-|bat Chri- stum|Re-|gem, et non|for- mi- de-|bat im- pe- ri-|
 G4 c6 B2 (A4- | A4 G2 F2 E2 F2 G4- | G2 A2 B6 A2 A4- | A2 G2 G2 FE F2 E2 E4-) | (E2 D2 D6 C2 C4- | %25
w: i prin- ci- pa\-|||||
 C2 B,A, B,4) C8 | z8 G8- | G4 C4 E8 | G8 c8- | c4 c4 c4 G4 | _B4 (A8 G2 F2 | G8) A8 | z8 z4 A4 | %33
w: * * * * tum:|O|* Mar- ti-|ne, O|* Mar- ti- ne|dul- ce\- * *|* do,|me-|
 G4 E4 F8 | E4 A,4 D6 D2 | C8 z8 | A8 G4 E4 | F8 G4 A4- | A4 (G6 F2 F4- | F4) E4 (F6 G2 | A8) G8- | %41
w: di- ca- men-|tum et me- di-|ce,|me- di- ca-|men- tum et|* me\- * *|* di- ce: *|* O|
 G8 ^G8 | ^G6 G2 G4 A4- | A4 ^F4 F8- | F8 G8- | G8 ^G8 | ^G6 G2 G4 A4- | A4 ^F4 F8- | F8 G6 =F2 | %49
w: * san-|ctis- si- ma a\-|* ni- ma,|* O|* san-|ctis- si- ma a\-|* ni- ma,|* quam et-|
 G4 A6 A2 A4- | A4 E4 A8- | A4 B4 c8 | G4 G4 (A6 G2 | F6) F2 E8 | z4 (C2 D2 E2 F2 G4) | %55
w: si gla- di- us|* per- se\-|* cu- to-|ris non ab\- *|* stu- lit,|pal\- * * * *|
 G4 C6 B,2 B,4 | G4 G4 G8 | (C2 D2 E2 F2 G6 A2 | B8) B4 c4- | c2 B2 B4 G6 G2 | G4 G8 ^F4 | %61
w: mam ta- men mar-|ty- ri- i,|pal\- * * * * *|* mam ta\-|* men mar- tyr- ri-|i non a-|
 G4 D4 (=F2 G2 A2 B2 | c8) B8 | z4 G6 G2 D4 | E6 E2 E8 | E4 D4 (A2 B2 c4- | c4 B2 A2 B8) | %67
w: mi- sit, pal\- * * *|* mam|ta- men mar-|ty- ri- i|non a- mi\- * *||
 G4 G8 D4 | G16 | G16 |] %70
w: sit, non a-|mi-|sit.|
V:3
 z16 | z16 | z16 | c16 | G8 A8 | G4 c4 B6 B2 |[M:4/2][K:treble-8] (c6 d2 e8) | z16 | z16 | g16 | %10
w: |||O|be- a-|tum Pon- ti- fi-|cem, * *|||O|
 d8 e8 | d4 g4 ^f6 f2 | g4 d4 e8 | =f4 e4 g6 g2 | g4 g6 g2 e4 | e4 e4 e4 (g4- | g4 ^f2 e2 f8) | %17
w: be- a-|tum Pon- ti- fi-|cem, qui to-|tis vi- sce- ri-|bus di- li- ge-|bat Chri- stum Re\-||
 g16- | g8 z8 | z4 e8 e4 | e4 e4 f8 | e4 e4 g6 g2 | e8 c6 d2 | e8 c8 | f6 f2 (e8 | d8) e8 | %26
w: gem,||et non|for- mi- da-|bat im- pe- ri-|i prin- ci-|pa- tum,|prin- ci- pa\-|* tum:|
 e12 e4 | e8 c8 | z4 e8 e4 | (e6 f2 g8) | g4 e4 d8- | d8 e4 c4 | B4 G4 A6 A2 | B4 c8 B4 | %34
w: O Mar-|ti- ne,|O Mar-|ti\- * *|ne dul- ce\-|* do, me-|di- ca- men- tum|et me- di-|
 c8 z4 g4 | e4 f4 g8 | c4 d4 e4 B4 | d4 f4 e4 c4 | d8 e4 a4 | g6 g2 c8- | c8 e8- | e8 B8 | %42
w: ce, me-|di- ca- men-|tum et me- di-|ce, me- di- ca-|men- tum et|me- di- ce:|* O|* san-|
 e6 e2 e4 e4- | e4 d4 d8- | d8 e8- | e8 B8 | e6 e2 e4 e4- | e4 d4 d8- | d8 z8 | z16 | z16 | z16 | %52
w: ctis- si- ma a\-|* ni- ma,|* O|* san-|ctis- si- ma a\-|* ni- ma,|||||
 z16 | z8 z4 c4- | (c2 d2 e2 f2 g8) | e4 g6 g2 d4 | e12 d4 | a8 d4 B4 | d8 G4 g4- | %59
w: |pal\-||mam ta- men mar-|ty- ri-|i non a-|mi- sit, ta\-|
 g2 g2 d4 e6 e2 | d8 z4 d4- | d4 B4 d4 c4 | (c2 d2 e2 f2 g8) | (g6 fe d8) | z4 (c6 d2 e2 f2 | %65
w: * men mar- ty- ri-|i non|* a- mi- sit,|pal\- * * * *|mam, * * *|pal\- * * *|
 g8) c8 | z4 g6 g2 d4 | e6 e2 d4 g4- | g4 e4 d8 | c16 |] %70
w: * mam|ta- men mar-|ty- ri- i non|* a- mi-|sit.|
V:4
 z16 | z16 | z16 | C,16 | E,8 F,8 | E,4 C,4 D,6 D,2 |[M:4/2] C,16 | z16 | z16 | G,16 | B,8 C8 | %11
w: |||O|be- a-|tum Pon- ti- fi-|cem,|||O|be- a-|
 B,4 G,4 A,6 A,2 | G,4 G,4 C8 | F,4 A,4 G,6 G,2 | G,4 C6 G,2 A,4 | E,4 A,8 G,4 | D16 | G,4 C8 C4 | %18
w: tum Pon- ti- fi-|cem, qui to-|tis vi- sce- ri-|bus di- li- ge-|bat Chri- stum|Re-|gem, et non|
 C4 C4 F,8 | C8 z8 | z16 | z4 E,8 E,4 | E,4 E,4 F,8 | E,4 E,4 A,6 A,2 | D,8 E,6 F,2 | G,8 C,8 | %26
w: for- mi- de-|bat,||et non|for- mi- de-|bat im- pe- ri-|i prin- ci-|pa- tum:|
 C12 C4 | C8 C,8 | C12 C4 | C16 | G,4 A,4 _B,8- | B,8 A,4 A,4 | G,4 E,4 F,8 | E,4 C,4 D,6 D,2 | %34
w: O Mar-|ti- ne,|O Mar-|ti-|ne dul- ce\-|* do, me-|di- ca- men-|tum et me- di-|
 C,4 C4 B,4 G,4 | A,8 G,4 E,4 | F,6 F,2 E,8 | z4 D4 C4 A,4 | _B,8 A,4 F,4 | G,6 G,2 F,8- | %40
w: ce, me- di- ca-|men- tum et|me- di- ce,|me- di- ca-|men- tum et|me- di- ce:|
 F,8 C,8- | C,8 E,8 | E,6 E,2 E,4 A,4- | A,4 D,4 D,8- | D,8 C,8- | C,8 E,8 | E,6 E,2 E,4 A,4- | %47
w: * O|* san-|ctis- si- ma a\-|* ni- ma,|* O|* san-|ctis- si- ma a\-|
 A,4 D,4 D,8- | D,8 z8 | z16 | z16 | z16 | z16 | z16 | C8 C8 | (C,2 D,2 E,2 F,2 G,8) | %56
w: * ni- ma,|||||||pal- mam,|pal\- * * * *|
 C,4 C6 C2 G,4 | A,6 A,2 G,8 | G,8 E,8 | G,8 C,8 | (G,2 A,2 B,2 C2 D8) | G,8 (D,2 E,2 F,2 G,2 | %62
w: mam ta- men mar-|ty- ri- i|non a-|mi- sit,|pal\- * * * *|mam, pal\- * * *|
 A,8) E,8 | (C,2 D,2 E,2 F,2 G,8) | C,8 z4 C4- | C2 C2 G,4 A,6 A,2 | G,8 G,8 | E,8 G,8- | G,16 | %69
w: * mam,|pal\- * * * *|mam, ta\-|* men mar- ty- ri-|i non|a- mi\-||
 C,16 |] %70
w: sit.|

